files/resources/svgs/general/s-command-line.svg

<svg width="24" height="24" viewBox="0 0 24 24" fill="none" xmlns="http://www.w3.org/2000/svg">
<path fill-rule="evenodd" clip-rule="evenodd" d="M2.25 6C2.25 4.34315 3.59315 3 5.25 3H18.75C20.4069 3 21.75 4.34315 21.75 6V18C21.75 19.6569 20.4069 21 18.75 21H5.25C3.59315 21 2.25 19.6569 2.25 18V6ZM6.21967 6.96967C6.51256 6.67678 6.98744 6.67678 7.28033 6.96967L9.53033 9.21967C9.82322 9.51256 9.82322 9.98744 9.53033 10.2803L7.28033 12.5303C6.98744 12.8232 6.51256 12.8232 6.21967 12.5303C5.92678 12.2374 5.92678 11.7626 6.21967 11.4697L7.93934 9.75L6.21967 8.03033C5.92678 7.73744 5.92678 7.26256 6.21967 6.96967ZM10.5 11.25C10.0858 11.25 9.75 11.5858 9.75 12C9.75 12.4142 10.0858 12.75 10.5 12.75H13.5C13.9142 12.75 14.25 12.4142 14.25 12C14.25 11.5858 13.9142 11.25 13.5 11.25H10.5Z" fill="#0F172A"/>
</svg>

<svg xmlns="http://www.w3.org/2000/svg" viewBox="0 0 24 24" fill="currentColor" aria-hidden="true">
  <path fill-rule="evenodd" d="M2.25 6a3 3 0 013-3h13.5a3 3 0 013 3v12a3 3 0 01-3 3H5.25a3 3 0 01-3-3V6zm3.97.97a.75.75 0 011.06 0l2.25 2.25a.75.75 0 010 1.06l-2.25 2.25a.75.75 0 01-1.06-1.06l1.72-1.72-1.72-1.72a.75.75 0 010-1.06zm4.28 4.28a.75.75 0 000 1.5h3a.75.75 0 000-1.5h-3z" clip-rule="evenodd"/>
</svg>
